X:16010
T:Pack Up Your Troubles in Your Old Kitbag
R:March
C:Felix Powell 1915
O:England
Z:Paul Hardy's Session Tunebook 2015 (see www.paulhardy.net). Creative Commons cc by-nc-sa licenced.
M:2/4
L:1/8
Q:1/4=120
K:D
"D"A2 AB|AGFG|A2 f2|f2 e2|"G"d4|"Em"B4|"D"A4-|A4|"D"A2 AB|AGFG|A2 f2|d4|"Em"e2 B2|"F#m"c2 d2|"A"e4-|e4|
"D"d3 e|f2 d2|"A"cd e2-|e2 f2|"Em"g2 e2|"D"f2 d2|"A"e4|a4|"D"A2 AB|AGFG|A2 a2|a2 g2|f4|"A7"e4|"D"d4-|d4|]

